;START_OF_HEADER
;HEADER_VERSION:0.1
;FLAVOR:Griffin
;GENERATOR.NAME:Cura_SteamEngine
;GENERATOR.VERSION:5.7.1
;GENERATOR.BUILD_DATE:2024-04-22
;TARGET_MACHINE.NAME:Ultimaker S5
;EXTRUDER_TRAIN.0.INITIAL_TEMPERATURE:210
;EXTRUDER_TRAIN.0.MATERIAL.VOLUME_USED:826
;EXTRUDER_TRAIN.0.MATERIAL.GUID:e509f649-9fe6-4b14-ac45-d441438cb4ef
;EXTRUDER_TRAIN.0.NOZZLE.DIAMETER:0.4
;EXTRUDER_TRAIN.0.NOZZLE.NAME:AA 0.4
;BUILD_PLATE.INITIAL_TEMPERATURE:60
;BUILD_VOLUME.TEMPERATURE:28
;PRINT.TIME:650
;PRINT.GROUPS:1
;PRINT.SIZE.MIN.X:153.252
;PRINT.SIZE.MIN.Y:113.152
;PRINT.SIZE.MIN.Z:0.3
;PRINT.SIZE.MAX.X:330
;PRINT.SIZE.MAX.Y:237
;PRINT.SIZE.MAX.Z:31.2
;SLICE_UUID:4d2736fc-275e-4bfd-80ee-b33a91bb20c6
;END_OF_HEADER
;Generated with Cura_SteamEngine 5.7.1
T0
M82 ;absolute extrusion mode

G92 E0
M190 S60
M109 S210
G280 S1
G0 Z20.001
G1 F2700 E-6.5
;LAYER_COUNT:104
G0 F9000 X330 Y237
;LAYER:0
M106 S255
M204 S2000
M205 X30 Y30
G1 F600 Z2.3
G0 F9000 X171.065 Y125.348 Z2.3
;TYPE:SKIRT
G1 F600 Z0.3
G1 F2700 E0
G1 F1800 X168.973 Y127.271 E0.05345
G1 X166.362 Y128.075 E0.10484
G1 X159.654 Y128.285 E0.23108
G1 X157.661 Y127.748 E0.26991
G1 X156.638 Y127.189 E0.29184
G1 X154.845 Y125.505 E0.33811
G1 X153.712 Y123.521 E0.38109
G1 X153.252 Y120.61 E0.43652
G1 X153.592 Y118.649 E0.47396
G1 X155.002 Y116.514 E0.52209
G1 X156.259 Y115.237 E0.5558
G1 X158.527 Y114.125 E0.60331
G1 X159.628 Y113.762 E0.62512
G1 X161.197 Y113.379 E0.6555
G1 X163.113 Y113.152 E0.69179
G1 X164.801 Y113.158 E0.72354
G1 X166.806 Y113.573 E0.76206
G1 X169.221 Y114.711 E0.81228
G1 X171.305 Y116.865 E0.86865
G1 X172.325 Y118.862 E0.91083
G1 X172.532 Y121.247 E0.95587
G1 X172.094 Y123.35 E0.99627
G1 X171.065 Y125.348 E1.03855
G0 F9000 X170.742 Y125.101
G1 F1800 X168.767 Y126.916 E1.08901
G1 X166.297 Y127.677 E1.13762
G1 X159.699 Y127.883 E1.26179
G1 X157.812 Y127.375 E1.29855
G1 X156.876 Y126.863 E1.31862
G1 X155.161 Y125.252 E1.36288
G1 X154.096 Y123.388 E1.40327
G1 X153.657 Y120.613 E1.45611
G1 X153.972 Y118.8 E1.49073
G1 X155.316 Y116.765 E1.5366
G1 X156.495 Y115.566 E1.56823
G1 X158.653 Y114.505 E1.61347
G1 X159.723 Y114.151 E1.63467
G1 X161.292 Y113.768 E1.66505
G1 X163.112 Y113.552 E1.69952
G1 X164.758 Y113.558 E1.73049
G1 X166.68 Y113.956 E1.76741
G1 X168.985 Y115.042 E1.81534
G1 X170.976 Y117.099 E1.86919
G1 X171.934 Y118.975 E1.90881
G1 X172.129 Y121.22 E1.9512
G1 X171.713 Y123.216 E1.98955
G1 X170.742 Y125.101 E2.02944
G0 F9000 X170.418 Y124.856
G1 F1800 X168.563 Y126.561 E2.07683
G1 X166.232 Y127.279 E2.12271
G1 X159.744 Y127.481 E2.24481
G1 X157.963 Y127.002 E2.27951
G1 X157.111 Y126.536 E2.29777
G1 X155.479 Y125.002 E2.33991
G1 X154.479 Y123.253 E2.3778
G1 X154.062 Y120.616 E2.42802
G1 X154.351 Y118.952 E2.45979
G1 X155.632 Y117.014 E2.50349
G1 X156.731 Y115.896 E2.53298
G1 X158.779 Y114.885 E2.57594
G1 X159.818 Y114.54 E2.59654
G1 X161.387 Y114.157 E2.62692
G1 X163.111 Y113.952 E2.65957
G1 X164.715 Y113.958 E2.68975
G1 X166.554 Y114.339 E2.72507
G1 X168.749 Y115.373 E2.77071
G1 X170.647 Y117.333 E2.82204
G1 X171.542 Y119.086 E2.85906
G1 X171.725 Y121.196 E2.8989
G1 X171.332 Y123.082 E2.93514
G1 X170.418 Y124.856 E2.97268
G0 F9000 X170.094 Y124.611
G1 F1800 X168.359 Y126.206 E3.01701
G1 X166.167 Y126.881 E3.06015
G1 X159.789 Y127.079 E3.18018
G1 X158.114 Y126.629 E3.21281
G1 X157.346 Y126.209 E3.22927
G1 X155.797 Y124.752 E3.26928
G1 X154.862 Y123.118 E3.30469
G1 X154.467 Y120.619 E3.35228
G1 X154.73 Y119.104 E3.3812
G1 X155.945 Y117.266 E3.42265
G1 X156.969 Y116.225 E3.45012
G1 X158.956 Y115.244 E3.4918
G1 X159.913 Y114.929 E3.51075
G1 X161.482 Y114.546 E3.54113
G1 X163.109 Y114.352 E3.57195
G1 X164.672 Y114.358 E3.60136
G1 X166.426 Y114.721 E3.63505
G1 X168.514 Y115.705 E3.67847
G1 X170.318 Y117.567 E3.72724
G1 X171.15 Y119.197 E3.76166
G1 X171.321 Y121.172 E3.79895
G1 X170.951 Y122.948 E3.83308
G1 X170.094 Y124.611 E3.86827
G0 F9000 X169.771 Y124.364
G1 F1800 X168.153 Y125.851 E3.9096
G1 X166.102 Y126.483 E3.94997
G1 X159.834 Y126.677 E4.06793
G1 X158.265 Y126.256 E4.09849
G1 X157.582 Y125.882 E4.11314
G1 X156.115 Y124.502 E4.15103
G1 X155.245 Y122.983 E4.18395
G1 X154.872 Y120.622 E4.22892
G1 X155.109 Y119.256 E4.255
G1 X156.258 Y117.518 E4.29419
G1 X157.208 Y116.553 E4.31966
G1 X159.082 Y115.624 E4.359
G1 X160.008 Y115.318 E4.37735
G1 X161.577 Y114.935 E4.40773
G1 X163.107 Y114.752 E4.43671
G1 X164.629 Y114.758 E4.46534
G1 X166.3 Y115.104 E4.49744
G1 X168.278 Y116.036 E4.53857
G1 X169.989 Y117.801 E4.58481
G1 X170.758 Y119.308 E4.61664
G1 X170.917 Y121.148 E4.65138
G1 X170.57 Y122.814 E4.68339
G1 X169.771 Y124.364 E4.71619
G0 F9000 X169.447 Y124.119
G1 F1800 X167.949 Y125.496 E4.75447
G1 X166.037 Y126.085 E4.7921
G1 X159.879 Y126.275 E4.90799
G1 X158.416 Y125.883 E4.93648
G1 X157.818 Y125.555 E4.94931
G1 X156.433 Y124.252 E4.98508
G1 X155.628 Y122.848 E5.01552
G1 X155.277 Y120.625 E5.05786
G1 X155.488 Y119.408 E5.08109
G1 X156.571 Y117.77 E5.11803
G1 X157.447 Y116.881 E5.14151
G1 X159.208 Y116.004 E5.17851
G1 X160.134 Y115.698 E5.19686
G1 X161.625 Y115.332 E5.22574
G1 X163.105 Y115.152 E5.25378
G1 X164.586 Y115.158 E5.28164
G1 X166.174 Y115.487 E5.31215
G1 X168.043 Y116.367 E5.35101
G1 X169.66 Y118.035 E5.3947
G1 X170.366 Y119.419 E5.42393
G1 X170.513 Y121.124 E5.45612
G1 X170.189 Y122.68 E5.48602
G1 X169.447 Y124.119 E5.51647
G0 F9000 X169.126 Y123.87
G1 F1800 X167.743 Y125.141 E5.55181
G1 X165.972 Y125.687 E5.58667
G1 X159.924 Y125.873 E5.70049
G1 X158.562 Y125.508 E5.72701
G1 X158.092 Y125.264 E5.73697
G1 X156.751 Y124.002 E5.77161
G1 X156.011 Y122.712 E5.79958
G1 X155.682 Y120.629 E5.83925
G1 X155.868 Y119.559 E5.85968
G1 X156.882 Y118.024 E5.89429
G1 X157.685 Y117.21 E5.9158
G1 X159.334 Y116.384 E5.95049
G1 X160.26 Y116.078 E5.96883
G1 X161.674 Y115.729 E5.99623
G1 X163.103 Y115.552 E6.02332
G1 X164.543 Y115.558 E6.0504
G1 X166.048 Y115.87 E6.07931
G1 X167.808 Y116.698 E6.1159
G1 X169.331 Y118.269 E6.15706
G1 X169.974 Y119.53 E6.18369
G1 X170.109 Y121.1 E6.21333
G1 X169.808 Y122.548 E6.24115
G1 X169.126 Y123.87 E6.26913
G0 F9000 X168.804 Y123.623
G1 F1800 X167.539 Y124.786 E6.30145
G1 X165.907 Y125.289 E6.33358
G1 X159.968 Y125.471 E6.44535
G1 X158.665 Y125.122 E6.47072
G1 X158.366 Y124.973 E6.477
G1 X157.069 Y123.752 E6.51051
G1 X156.394 Y122.576 E6.53602
G1 X156.087 Y120.633 E6.57302
G1 X156.248 Y119.71 E6.59064
G1 X157.193 Y118.278 E6.62292
G1 X157.924 Y117.537 E6.6425
G1 X159.46 Y116.764 E6.67484
G1 X160.386 Y116.458 E6.69319
G1 X161.724 Y116.126 E6.71912
G1 X163.101 Y115.952 E6.74523
G1 X164.5 Y115.958 E6.77154
G1 X165.922 Y116.253 E6.79886
G1 X167.573 Y117.029 E6.83318
G1 X169.002 Y118.503 E6.87179
G1 X169.582 Y119.641 E6.89582
G1 X169.705 Y121.076 E6.92291
G1 X169.427 Y122.416 E6.94866
G1 X168.804 Y123.623 E6.97421
G0 F9000 X168.482 Y123.375
G1 F1800 X167.333 Y124.431 E7.00356
G1 X165.842 Y124.891 E7.03291
G1 X160.012 Y125.069 E7.14263
G1 X158.768 Y124.736 E7.16685
G1 X158.597 Y124.641 E7.17053
G1 X157.387 Y123.502 E7.20179
G1 X156.777 Y122.44 E7.22483
G1 X156.492 Y120.637 E7.25917
G1 X156.628 Y119.861 E7.27398
G1 X157.504 Y118.532 E7.30393
G1 X158.163 Y117.865 E7.32156
G1 X159.586 Y117.144 E7.35157
G1 X160.512 Y116.838 E7.36992
G1 X161.775 Y116.523 E7.3944
G1 X163.099 Y116.352 E7.41951
G1 X164.457 Y116.358 E7.44506
G1 X165.796 Y116.636 E7.47078
G1 X167.338 Y117.36 E7.50283
G1 X168.674 Y118.738 E7.53893
G1 X169.189 Y119.75 E7.56029
G1 X169.301 Y121.053 E7.58489
G1 X169.046 Y122.283 E7.60852
G1 X168.482 Y123.375 E7.63164
G0 F9000 X168.159 Y123.129
G1 F1800 X167.129 Y124.076 E7.65796
G1 X165.777 Y124.493 E7.68457
G1 X160.056 Y124.667 E7.79224
G1 X158.871 Y124.35 E7.81531
G1 X157.705 Y123.252 E7.84544
G1 X157.161 Y122.305 E7.86598
G1 X156.887 Y120.574 E7.89895
G1 X156.962 Y120.081 E7.90833
G1 X157.817 Y118.783 E7.93757
G1 X158.401 Y118.193 E7.95318
G1 X159.712 Y117.524 E7.98087
G1 X160.638 Y117.218 E7.99921
G1 X161.827 Y116.92 E8.02227
G1 X163.097 Y116.752 E8.04637
G1 X164.414 Y116.758 E8.07114
G1 X165.67 Y117.019 E8.09527
G1 X167.103 Y117.691 E8.12504
G1 X168.344 Y118.971 E8.15858
G1 X168.797 Y119.862 E8.17738
G1 X168.897 Y121.03 E8.19943
G1 X168.665 Y122.15 E8.22095
G1 X168.159 Y123.129 E8.24168
G0 F9000 X167.836 Y122.883
G1 F1800 X166.925 Y123.721 E8.26496
G1 X165.712 Y124.095 E8.28884
G1 X160.1 Y124.265 E8.39445
G1 X159.072 Y123.99 E8.41447
G1 X158.023 Y123.002 E8.44158
G1 X157.544 Y122.169 E8.45965
G1 X157.282 Y120.512 E8.49121
G1 X157.296 Y120.301 E8.49519
G1 X158.151 Y119.003 E8.52442
G1 X158.638 Y118.521 E8.53731
G1 X159.838 Y117.904 E8.56269
G1 X160.764 Y117.598 E8.58104
G1 X161.879 Y117.317 E8.60267
G1 X163.149 Y117.149 E8.62676
G1 X164.371 Y117.158 E8.64975
G1 X165.544 Y117.402 E8.67229
G1 X166.868 Y118.022 E8.69979
G1 X168.014 Y119.204 E8.73076
G1 X168.405 Y119.973 E8.74699
G1 X168.493 Y121.006 E8.76649
G1 X168.284 Y122.017 E8.78591
G1 X167.836 Y122.883 E8.80425
G0 F9000 X167.513 Y122.637
G1 F1800 X166.721 Y123.366 E8.8245
G1 X165.647 Y123.697 E8.84564
G1 X160.144 Y123.863 E8.9492
G1 X159.273 Y123.63 E8.96616
G1 X158.342 Y122.753 E8.99022
G1 X157.927 Y122.032 E9.00587
G1 X157.677 Y120.45 E9.03599
G1 X158.485 Y119.223 E9.06363
G1 X158.877 Y118.848 E9.07383
G1 X159.964 Y118.284 E9.09687
G1 X160.863 Y117.986 E9.11468
G1 X161.931 Y117.714 E9.13542
G1 X163.201 Y117.546 E9.15951
G1 X164.327 Y117.558 E9.18069
G1 X165.418 Y117.785 E9.20166
G1 X166.631 Y118.353 E9.22685
G1 X167.685 Y119.439 E9.25532
G1 X168.013 Y120.084 E9.26893
G1 X168.089 Y120.982 E9.28588
G1 X167.903 Y121.884 E9.30321
G1 X167.513 Y122.637 E9.31916
G0 F9000 X167.191 Y122.39
G1 F1800 X166.517 Y123.011 E9.3364
G1 X165.582 Y123.299 E9.3548
G1 X160.188 Y123.461 E9.45631
G1 X159.474 Y123.27 E9.47021
G1 X158.661 Y122.504 E9.49123
G1 X158.31 Y121.895 E9.50445
G1 X158.096 Y120.541 E9.53023
G1 X158.819 Y119.443 E9.55496
G1 X159.113 Y119.175 E9.56245
G1 X160.09 Y118.664 E9.58319
G1 X160.962 Y118.374 E9.60047
G1 X162.03 Y118.102 E9.6212
G1 X163.197 Y117.946 E9.64335
G1 X164.282 Y117.958 E9.66376
G1 X165.292 Y118.168 E9.68317
G1 X166.394 Y118.684 E9.70605
G1 X167.398 Y119.718 E9.73317
G1 X167.614 Y120.118 E9.74172
G1 X167.685 Y120.959 E9.75759
G1 X167.511 Y121.803 E9.7738
G1 X167.191 Y122.39 E9.78638
G0 F9000 X166.92 Y122.096
M104 S200
G1 F1800 X166.313 Y122.656 E9.80191
G1 X165.517 Y122.901 E9.81758
G1 X160.176 Y123.061 E9.91809
G1 X159.675 Y122.91 E9.92793
G1 X158.935 Y122.213 E9.94706
G1 X158.705 Y121.832 E9.95543
G1 X158.515 Y120.632 E9.97828
G1 X159.153 Y119.663 E10.00011
G1 X159.3 Y119.529 E10.00385
G1 X160.216 Y119.044 E10.02334
G1 X161.088 Y118.754 E10.04063
G1 X162.084 Y118.498 E10.05997
G1 X163.192 Y118.346 E10.08101
G1 X164.237 Y118.358 E10.10067
G1 X165.166 Y118.551 E10.11852
G1 X166.157 Y119.015 E10.1391
G1 X167.111 Y119.997 E10.16486
G1 X167.222 Y120.231 E10.16973
G1 X167.281 Y120.936 E10.18303
G1 X167.13 Y121.671 E10.19715
G1 X166.92 Y122.096 E10.20607
G0 F9000 X166.568 Y121.906
G1 F1800 X166.11 Y122.3 E10.21743
G1 X165.505 Y122.501 E10.22942
G1 X160.164 Y122.661 E10.32994
G1 X159.949 Y122.619 E10.33406
G1 X159.209 Y121.922 E10.35318
G1 X159.088 Y121.694 E10.35803
G1 X158.934 Y120.723 E10.37653
G1 X159.487 Y119.883 E10.39544
G1 X160.403 Y119.398 E10.41494
G1 X161.189 Y119.141 E10.4305
G1 X162.14 Y118.894 E10.44898
G1 X163.187 Y118.746 E10.46887
G1 X164.192 Y118.758 E10.48778
G1 X165.04 Y118.934 E10.50407
G1 X165.92 Y119.346 E10.52234
G1 X166.824 Y120.276 E10.54674
G1 X166.889 Y120.856 E10.55772
G1 X166.738 Y121.591 E10.57183
G1 X166.568 Y121.906 E10.57857
G0 F9000 X166.228 Y121.696
G1 F1800 X165.862 Y121.986 E10.58735
G1 X165.493 Y122.101 E10.59462
G1 X160.152 Y122.261 E10.69513
G1 X159.483 Y121.631 E10.71242
G1 X159.353 Y120.814 E10.72798
G1 X159.765 Y120.188 E10.74208
G1 X160.528 Y119.778 E10.75837
G1 X161.29 Y119.528 E10.77346
G1 X162.198 Y119.29 E10.79111
G1 X163.182 Y119.146 E10.80982
G1 X164.147 Y119.158 E10.82797
G1 X164.914 Y119.317 E10.84271
G1 X165.683 Y119.677 E10.85868
G1 X166.452 Y120.468 E10.87943
G1 X166.491 Y120.893 E10.88746
G1 X166.349 Y121.5 E10.89919
G1 X166.228 Y121.696 E10.90352
G0 F9000 X165.639 Y121.162
G1 F1800 X165.469 Y121.301 E10.90765
G1 X160.394 Y121.453 E11.00316
G1 X160.215 Y121.308 E11.00749
G1 X160.155 Y120.986 E11.01365
G1 X160.24 Y120.841 E11.01681
G1 X160.778 Y120.538 E11.02843
G1 X161.517 Y120.295 E11.04306
G1 X162.316 Y120.081 E11.05862
G1 X163.233 Y119.942 E11.07607
G1 X164.056 Y119.957 E11.09155
G1 X164.707 Y120.092 E11.10406
G1 X165.27 Y120.367 E11.11584
G1 X165.698 Y120.84 E11.12784
G1 X165.639 Y121.162 E11.134
G0 F9000 X165.962 Y121.397
G1 F1800 X165.722 Y121.611 E11.14005
G1 X165.481 Y121.701 E11.14489
G1 X160.274 Y121.857 E11.24288
G1 X159.853 Y121.479 E11.25352
G1 X159.769 Y120.882 E11.26486
G1 X160.044 Y120.492 E11.27384
G1 X160.653 Y120.158 E11.2869
G1 X161.392 Y119.915 E11.30154
G1 X162.256 Y119.686 E11.31835
G1 X163.24 Y119.542 E11.33706
G1 X164.102 Y119.558 E11.35327
G1 X164.788 Y119.7 E11.36645
G1 X165.446 Y120.008 E11.38012
G1 X166.079 Y120.658 E11.39718
G1 X166.091 Y120.912 E11.40197
G1 X165.962 Y121.397 E11.41141
;MESH:handy-again.stl
G0 F9000 X163.947 Y120.646
;TYPE:WALL-OUTER
G1 F967.8 X163.246 Y120.653 E11.43643
G1 F1027.3 X162.471 Y120.725 E11.46284
;MESH:NONMESH
G0 F600 X162.471 Y120.725 Z0.6
G0 F9000 X164.64 Y120.435
;TIME_ELAPSED:27.543192
;LAYER:1
;TYPE:WALL-OUTER
;MESH:handy-again.stl
G1 F480 X164.009 Y120.3 E11.47498
G1 X163.25 Y120.289 E11.48926
G1 X162.454 Y120.412 E11.50441
G1 X161.652 Y120.631 E11.52005
G1 X161.567 Y120.661 E11.52174
G1 X160.944 Y120.883 E11.53418
G1 X160.398 Y121.193 E11.54599
G1 X160.081 Y121.565 E11.55519
G1 X159.931 Y122.003 E11.5639
G1 X159.906 Y122.488 E11.57303
G1 X159.992 Y122.896 E11.58088
G1 X160.087 Y123.048 E11.58425
G1 X164.906 Y122.699 E11.67513
G1 X165.436 Y122.463 E11.68605
G1 X165.701 Y122.09 E11.69465
G1 X165.736 Y121.873 E11.69879
G1 X165.611 Y121.257 E11.71061
G1 X165.425 Y120.97 E11.71704
G1 X165.104 Y120.674 E11.72526
G1 X164.858 Y120.547 E11.73047
G1 X164.64 Y120.435 E11.73508
M204 S3500
G0 F9000 X164.009 Y120.3
G0 X163.854 Y120.298
G0 X163.964 Y120.7
;TYPE:WALL-INNER
G1 F480 X163.278 Y120.689 E11.74798
G1 X162.538 Y120.804 E11.76207
G1 X162.437 Y120.831 E11.76403
G1 X161.772 Y121.013 E11.777
G1 X161.111 Y121.248 E11.7902
G1 X160.657 Y121.506 E11.80002
G1 X160.435 Y121.767 E11.80647
G1 X160.327 Y122.08 E11.8127
G1 X160.344 Y122.628 E11.82301
G1 X164.808 Y122.305 E11.9072
G1 X165.174 Y122.143 E11.91473
G1 X165.32 Y121.934 E11.91952
G1 X165.234 Y121.411 E11.92949
G1 X164.872 Y121.004 E11.93974
G1 X164.504 Y120.815 E11.94752
G1 X164.313 Y120.774 E11.9512
G1 X163.964 Y120.7 E11.95791
G0 F9000 X163.933 Y120.887
G0 X162.12 Y121.002
G0 X161.331 Y121.217
G0 X160.709 Y121.569
G0 X160.363 Y122.227
G0 X160.656 Y122.282
;TYPE:SKIN
;BRIDGE
G1 F480 X164.729 Y121.991 E12.03088
G1 X164.991 Y121.839 E12.03629
G1 X164.93 Y121.541 E12.04173
G1 X164.683 Y121.265 E12.04834
G1 X164.392 Y121.115 E12.0542
G1 X163.925 Y121.016 E12.06273
G1 X163.295 Y121.009 E12.07398
G1 X162.606 Y121.116 E12.08644
G1 X161.425 Y121.435 E12.10831
G1 X160.863 Y121.753 E12.11985
G1 X160.724 Y121.92 E12.12373
G1 X160.656 Y122.282 E12.13031
G0 F9000 X161.425 Y121.664
G1 F480 X164.57 Y121.437 E12.18666
M204 S2000
;MESH:NONMESH
G0 F600 X164.57 Y121.437 Z0.9
G0 F9000 X164.19 Y120.879
G0 X162.12 Y121.002
G0 X161.331 Y121.217
G0 X160.709 Y121.569
G0 X160.383 Y122.529
G0 X160.565 Y123.273
;TIME_ELAPSED:32.793069
;LAYER:2
;TYPE:WALL-OUTER
;MESH:handy-again.stl
G1 F480 X161.823 Y123.142 E12.21045
G1 X163.119 Y122.953 E12.23509
G1 X163.658 Y122.886 E12.2453
G1 X164.812 Y122.702 E12.26728
G1 X165.514 Y122.402 E12.28164
G1 X165.784 Y122.051 E12.28997
G1 X165.828 Y121.807 E12.29464
G1 X165.699 Y121.169 E12.30688
G1 X165.509 Y120.87 E12.31355
G1 X165.176 Y120.562 E12.32208
G1 X164.695 Y120.318 E12.33222
G1 X164.043 Y120.172 E12.34479
G1 X163.274 Y120.157 E12.35926
G1 X162.467 Y120.28 E12.37462
G1 X161.667 Y120.507 E12.39026
G1 X160.944 Y120.777 E12.40478
G1 X160.393 Y121.106 E12.41685
G1 X160.069 Y121.501 E12.42646
G1 X159.91 Y121.938 E12.4352
G1 X159.878 Y122.431 E12.4445
